X:21005 
T:ALL THE WAY TO GALWAY (reel)
B:DMI.0999
Z:Nordberg/Black
R:reel
%Q:1/4=180
M:C
L:1/8
K:G
"D modal"
A|defd cAAc|BGG2 cAAc|defd cAAc|BGAF D3:|
G|ABAG ABcA|GAGF EFGE|ABAG ABcd|cAGE D2DG|
ABAG ABcA|GAGF EFGE|ABAG AddB|cAGE D4|]

%%%

